assets/images/icon-permissions.svg

<svg xmlns="http://www.w3.org/2000/svg" width="48" height="48"><g fill="none" fill-rule="evenodd"><path fill="#F52D2D" d="M19 24h10v16H19z"/><path fill="#FCBFBF" d="M24 28c1.102 0 2 .896 2 2 0 .736-.406 1.374-1 1.72V37c0 .55-.45 1-1 1-.552 0-1-.45-1-1v-5.28c-.596-.346-1-.984-1-1.72a2 2 0 0 1 2-2zM6 21v24a3 3 0 0 0 3 3h30a3 3 0 0 0 3-3V21a3 3 0 0 0-3-3h-3v-6c0-6.618-5.384-12-12-12-6.618 0-12 5.382-12 12h2c0-5.514 4.484-10 10-10 5.514 0 10 4.486 10 10v6H9a3 3 0 0 0-3 3z"/></g></svg>

<svg xmlns="http://www.w3.org/2000/svg" width="48" height="48" viewBox="0 0 48 48">
  <g fill="none" fill-rule="evenodd">
    <rect width="10" height="16" x="19" y="24" fill="#F52D2D"/>
    <path fill="#FCBFBF" d="M24,28 C25.102,28 26,28.896 26,30 C26,30.736 25.594,31.374 25,31.72 L25,37 C25,37.55 24.55,38 24,38 C23.448,38 23,37.55 23,37 L23,31.72 C22.404,31.374 22,30.736 22,30 C22,28.896 22.896,28 24,28 Z M6,21 L6,45 L6,45 C6,46.6568542 7.34314575,48 9,48 L39,48 L39,48 C40.6568542,48 42,46.6568542 42,45 L42,21 L42,21 C42,19.3431458 40.6568542,18 39,18 L36,18 L36,12 C36,5.382 30.616,0 24,0 C17.382,0 12,5.382 12,12 L14,12 C14,6.486 18.484,2 24,2 C29.514,2 34,6.486 34,12 L34,18 L9,18 L9,18 C7.34314575,18 6,19.3431458 6,21 Z"/>
  </g>
</svg>
